X: 1
T: Lakes of Sligo
P: piffero primo a0227
O: cfd bk1
F: http://ancients.sudburymuster.org/mus/med/pdf/fortyseclakesC0.pdf
Z: 2020 John Chambers <jc:trillian.mit.edu>
M: 2/4
L: 1/16
K: D
AG |\
F2A2 A2Bc | d3e d2c2 | B2G2 B2d2 | e3d e2f2 |\
F2A2 A2Bc | d3e f2e2 | d2B2 A2f2 | e3d d2  :|
|: e2 |\
f2a2 d3e | f2a2 a2gf | g2b2 e2f2 | g2b2 b2ag |\
f2a2 e2f2 | d3e f2e2 | d2B2 A2f2 | e3d  d2  :|
